X:697
T:Sunset On Skaill
C:Jack Yorston
S:Jack Yorston
Z:Nigel Gatherer
M:3/4
L:1/4
K:C
G | e2d | c2E | FGA | G2G | e2d | c2e | d2A | BG2 |
    e2d | c2E | FGA | G2F | EG2 | c2e | gde | c2 ||
c | B2A | G2f | e2d | c3  | e2d | c2e | d2A | BG2 |
    e2d | c2E | FGA | G2F | EG2 | c2e | gde | c2 ||
